X:1
T:IHR KINDERLEIN KOMMET
T:IHR KINDERLEIN KOMMET
T:C. von Schmidt, 1840
C:C. von Schmidt, 1840
%%score [ 1 2 3 4 ]
L:1/8
Q:1/4=80
M:2/4
K:Ab
V:1 treble nm="Soprano" snm="S"
V:2 treble nm="Alto" snm="A"
V:3 treble-8 nm="Tenor" snm="T"
V:4 bass nm="Bass" snm="B"
V:1
 e |!mf!!p! e2 ce | e2 ce | d2 Bd | c3 e | e2 ce | e2 ce | d2 Bd | c3 c | B2 BB | d2 dd | c2 cc | %12
w: Ihr|Kind- er- lein|kom- met, O|kom- met doch|all, Zur|Krip- pe her|kom- met in|Beth- le- hem|Stall, und|seht, was in|dies- er hoch|hei- li- ge|
 f3 f | e2 ee | a2 ec | d2 BB | A3 z!fine! |] z4 | z4 | z4 | z4 | z4 | z4 | z4 | z4 | z4 | z4 | %27
w: Nacht der|Va- ter in|Him- mel fur|Freu- de uns|macht.|||||||||||
 z4 | z4 | z4 | z4 | z4 | z2!mf! z e | e2 ce | e2 ce | d2 Bd | c3 e | e2 ce | e2 ce | d2 Bd | %40
w: |||||O|see in the|cra- dle this|night in the|stall; See|here won- drous|light that is|daz- zling to|
 c3 c | B2 BB | d2 dd | c2 cc | f3 f | e2 ee | a2 ec | d2 BB | A3 z!D.C.! || %49
w: all. In|clean, love- ly|white lies the|heav- en- ly|Child; Not|e- ven the|an- gels are|more sweet and|mild.|
V:2
 A | A2 EA | A2 EA | G2 GG | E3 A | AG FG | A2 EA | F2 EE | EF EE | E2 EE | AF GG | AG FF | A3 A | %13
w: |||||||||||||
 AF GB | c2 AA | F2 EE | E3!p! E |] E2 CE | E2 CE | D2 B,D | C3 E | E2 CE | E2 CE | D2 B,D | C3 C | %25
w: |||* O|come lit- tle|chil- dren, O|come one and|all. The|cra- dle is|here as in|Beth- le- hem's|stall, And|
 B,2 B,B, | D2 DD | C2 CC | F3 F | E2 EE | A2 EC | D2 B,B, | A,3 A | A2 EA | A2 EA | G2 GG | E3 A | %37
w: see what the|Fa- ther in|high heav'n a-|bove, has|sent us to-|night as a|proof of His|love. *|||||
 AG FG | A2 EA | F2 EE | EF EE | E2 EE | AF GG | AG FF | A3 A | AF GB | c2 AF | F2 EE | C3 z || %49
w: ||||||||||||
V:3
 c | c2 Ac | c2 Ac | B2 BB | A3 c | c2 Ad | c2 Ac | BA GG | A3 A | AF GG | B2 BB | A2 AA | d3 =B | %13
w: Ihr|Kind- er- lein|kom- met, O|kom- met doch|all, Zur|Krip- pe her|kom- met in|Beth- * le- hem|Stahl, und|seht,- * was in|dies- er hoch|hei- li- ge|Nacht der|
 c2 dd | ce cc | BA AG | c3!p! c |] c2 Ac | c2 Ac | B2 BB | A3 c | c2 Ad | c2 Ac | BA GG | EF EE | %25
w: Va- ter in|Him- * mel fur|Freu- * de uns|macht. O|come lit- tle|chil- dren, O|come one and|all. The|cra- dle is|here as in|Beth- * le- hem's|stall * * And|
 AF GG | B2 BB | A2 AA | d3 =B | c2 dd | ce cA | BA AG | A3 c | c2 Ac | c2 Ac | B2 BB | A3 c | %37
w: see- * what the|Fa- ther in|high heav'n a-|bove, has|sent us to-|night- * as a|proof- * of His|love. O|see in the|cra- dle this|night in the|stall: See|
 c2 Ad | c2 Ac | BA GG | A3 A | AF GG | B2 BB | A2 AA | d3 =B | c2 dd | ce cA | BA AG | E3 z || %49
w: here won- drous|light that is|daz- * zling to|all. In|clean,- * love- ly|white lies the|heav- en- ly|Child; Not|e- ven the|An- * gels are|more- * sweet and|mild.|
V:4
 A, | A,2 A,A, | A,2 A,A, | E,2 E,E, | A,,3 A, | A,G, F,E, | A,E, A,,A,, | B,,2 E,[E,,E,] | %8
 A,,3 A,, | E,2 E,E, | B,,2 E,E, | A,G, F,E, | D,3 =D, | E,2 E,G, | A,C, E,F, | B,,2 E,[E,,E,] | %16
 A,,3!p! A, |] A,2 A,A, | A,2 A,A, | E,2 E,E, | A,,3 A, | A,G, F,E, | A,E, A,,A,, | %23
 B,,2 E,[E,,E,] | A,,3 A,, | E,2 E,E, | B,,F, E,E, | A,G, F,E, | D,3 =D, | E,F, E,G, | A,C, E,F, | %31
 B,,2 E,[E,,E,] | A,,3 A, | A,2 A,A, | A,2 A,A, | E,2 E,E, | A,,3 A, | A,G, F,E, | A,E, A,,A,, | %39
 B,,2 E,[E,,E,] | A,,3 A,, | E,2 E,E, | B,,2 E,E, | A,G, F,E, | D,3 =D, | E,2 E,G, | A,C, E,F, | %47
 B,,2 E,[E,,E,] | A,,3 z || %49

